X:7
T:The Blackbird
R:waltz
M:3/4
K:A
|: AB | "A"c3BA2 | "D"F2F2 AF | "A"E2 F2 A2 | "(C#m)"c3 B AB | "(F#m)"c3BA2 | "D"F2F2 AF | "E7"E2 F2 G2 | "A"A4 :|
 AB | "A"c3B cd | "(C#m)"e2e2 fg | "D"a4 ga | "E7"g2 f2 ed | "A"c2 B2 c2 | "(C#m)"e3 f g2 | "D"a2 g2 f2 | "E7"e4 ce |
 "D"d4 ec | "E"B2 c2 e2 | "D"f2 af ec | "E7"c2 B2 AB | "A"c3BA2 | "D"F2F2 AF | "E7"E2 F2 G2 | "A"A6 |]
